Newaita-dark/actions/32/document-open.svg

<svg height="32" viewBox="0 0 32 32" width="32" xmlns="http://www.w3.org/2000/svg"><g fill="#e0e0e0"><path d="m14.554688 8.1875h2.644531v9.90625c0 .367188-.292969.660156-.660157.660156h-1.324218c-.367188 0-.660156-.292968-.660156-.660156zm0 0"/><path d="m20.507812 9.511719h-9.261718l4.628906-6.617188zm0 0"/><path d="m5.285156 20.09375v6.617188c0 1.464843 1.179688 2.644531 2.648438 2.644531h15.875c1.464844 0 2.644531-1.179688 2.644531-2.644531v-6.617188h-2.644531v5.292969c0 .734375-.589844 1.324219-1.324219 1.324219h-13.230469c-.730468 0-1.320312-.589844-1.320312-1.324219v-5.292969zm0 0"/></g></svg>

<?xml version="1.0" encoding="UTF-8"?>
<svg xmlns="http://www.w3.org/2000/svg" xmlns:xlink="http://www.w3.org/1999/xlink" width="32px" height="32px" viewBox="0 0 32 32" version="1.1">
<g id="surface1">
<path style=" stroke:none;fill-rule:nonzero;fill:rgb(87.843138%,87.843138%,87.843138%);fill-opacity:1;" d="M 14.554688 8.1875 L 17.199219 8.1875 L 17.199219 18.09375 C 17.199219 18.460938 16.90625 18.753906 16.539062 18.753906 L 15.214844 18.753906 C 14.847656 18.753906 14.554688 18.460938 14.554688 18.09375 Z M 14.554688 8.1875 "/>
<path style=" stroke:none;fill-rule:nonzero;fill:rgb(87.843138%,87.843138%,87.843138%);fill-opacity:1;" d="M 20.507812 9.511719 L 11.246094 9.511719 L 15.875 2.894531 Z M 20.507812 9.511719 "/>
<path style=" stroke:none;fill-rule:nonzero;fill:rgb(87.843138%,87.843138%,87.843138%);fill-opacity:1;" d="M 5.285156 20.09375 L 5.285156 26.710938 C 5.285156 28.175781 6.464844 29.355469 7.933594 29.355469 L 23.808594 29.355469 C 25.273438 29.355469 26.453125 28.175781 26.453125 26.710938 L 26.453125 20.09375 L 23.808594 20.09375 L 23.808594 25.386719 C 23.808594 26.121094 23.21875 26.710938 22.484375 26.710938 L 9.253906 26.710938 C 8.523438 26.710938 7.933594 26.121094 7.933594 25.386719 L 7.933594 20.09375 Z M 5.285156 20.09375 "/>
</g>
</svg>
